X:1
T:Burning of Rome
T:Burning of Rome
T:Descriptive March and Two Step
T:E.T Paull
T:Copyright MCMIII by E.T Paull.
T:Copyright MCMIII by E.T Paull.
T:Copyright MCMIII by E.T Paull.
T:Copyright MCMIII by E.T Paull.
T:Copyright MCMIII by E.T Paull.
T:Copyright MCMIII by E.T Paull.
T:Copyright MCMIII by E.T Paull.
T:Copyright MCMIII by E.T Paull.
C:E.T Paull
Z:Copyright MCMIII by E.T Paull.
%%score { ( 1 4 ) | ( 2 3 ) }
L:1/8
Q:1/4=130
M:2/4
K:Eb
V:1 treble nm="Piano" snm="Pno."
V:4 treble 
V:2 bass 
V:3 bass 
V:1
"^Con Brilliant.""^INTRO."!ff! [Bb]b/B/ .[Bb]"^Dash of the Charioteers for Position."b/B/ | %1
w: |
 .[Bb]b/B/ .b z |!8va(! [bb']b'/b/ .[bb']b'/b/ | .[bb']b'/b/ .b' z | [bb'][=a=a'] [_a_a'][gg'] | %5
w: ||||
 [_g_g'][ff'] [=e=e'][_e_e']!8va)! | [dd'][_d_d'] [cc'][_c_c'] | [Bb] z!8va(! [bd'f'b'] z!8va)! |: %8
w: |||
!f!"^The Race." .[GB]/.[GB]/.[GB]/.[GB]/ [Gc][GB] | [Gc]3 B | c/.B/.G/.B/ d/.B/.G/.B/ | %11
w: |||
 e!^![Ad] !^![Ad]2 | .[AB]/.[AB]/.[AB]/.[AB]/ !^![Ac][AB] | !^![Ac]3 [AB] | %14
w: |||
 !^!d/.B/.A/.B/ !^!f/.B/.A/.B/ | g[Ge] !^![GB]2 |!f! .[GB]/.[GB]/.[GB]/.[GB]/ [Gc][GB] | [Gc]3 B |1 %18
w: ||||
 c/.B/.G/.B/ d/.B/.G/.B/ | .e.[FBd] !^![FBd]2 | !^![=Aef]>[Aef] !^![Aeg]!^![Aef] | %21
w: |||
 !^![Bdf]>[Bdf] !^![Bdg]!^![Bdf] |!<(! [Ff][^F^f] [Gg][=A=a]!<)! |!>(! [Bb].B/.B/ .B.B!>)! :|2 %24
w: |||
 c/.B/.G/.B/ d/B/e/B/ || .f[Ac] !^![Ac]2 | [^Fce]>d [^Fe][=Ff] | [Geg]>e [Gd][Gc] | %28
w: ||||
"^Finish of the Race." [Bb][=B=b] [cc'][dd'] | [ee'] z [Bb][=A=a] |: %30
w: ||
!ff!"^Parade of the Victors." [Bab]2 [=Ba=b]2 | [Aac']2 [Bad']2 | [cgc'][Bb] [=A=a][Bb] | %33
w: |||
 [ee'][Bb] [=A=a][Bb] | [Ba_b]2 [=Ba=b]2 | [cac']2 [dad']2 | [cgc'][Bb] [=A=a][Bb] | %37
w: ||||
 [Gg].[Bb]/.[Bb]/ .[Bb].[Bb] | [Bab]2 [=Ba=b]2 | [Aac']2 [Bad']2 |1 [cgc'][Bb] [=A=a][Bb] | %41
w: ||||
 [ee'][Bb] [=A=a][Bb] | [dd']>[dd'] [dd'][ff'] | [cc']>[cc'] [cc'][ff'] | .[Bdb] z ([f=af']2 | %45
w: ||||
 [bg']).B/.B/ .B.B :|2!<(! [cgc'][Bb] [=A=a][Bb]!<)! || [faf']3 [eae'] | %48
w: |||
 [dad'][dad'] [^ca^c'][dad'] | [gbg']2 [faf']2 | [ege']2 z2 |!8va(! [e'g'e''] z z2!8va)! || %52
w: ||||
[K:Ab][M:2/4]"^Populace\n    Dispering."!ff!!>(! [egbe'][egbe'] [egbe'][egbe'] | %53
w: * ral * len|
 [egbe'][egbe'] [egbe'][egbe']!>)! | [egbe'] z!p! (!fermata![B,DB]2 | %55
w: * * tan *|do *|
 !fermata![B,DF]2 !fermata![B,DE]2) || %56
w: |
!p!"^Evening Song of the Christians."[Q:1/4=120] [Ec]3"_dolce" [Ec] | [=D=B]2 [FBf]2 | %58
w: ||
 !arpeggio![Ece]3 c | !arpeggio![EAce]3 c | [FA]3 [FA] | ([FB]2 [_FA]2) | [Ec]4- | [Ec]3 E | %64
w: ||||||
 ([Ec]3 [Ec] | [=D=B]2 [FBf]2 | [Ece]3 c | [EAce]2 [Ac]2) |!<(! ([=DB]2 [DF]2 | [=DG]2 [DA]2!<)! | %70
w: ||||||
!>(! [=DB]2 [_DG]2) | [DF]2 [DE]2!>)! |!p! ([Ec]3 [Ec] | [=D=B]2 [FBf]2 | !arpeggio![Ece]3 c | %75
w: |||||
 !arpeggio![EAce]3 c) | ([FA]3 [FA] | [FB]2 [FA]2) | c4- | c3 [Cc] | [DB]3 [DB] |!<(! (FG A[=Bf] | %82
w: |||||||
 [Ace]2) [EAc]2!<)! |!mp! [_C=DA]2- [CDA]B | ([E-A-c]2 [EAe]2) | ([E-G-B]2 [EGe]2) | %86
w: ||||
 [EA] z ([Gde]2 | .[Aca]) z z2 ||"^Alarm of Fire."[Q:1/4=130]!fff! [cc']c'/c/ .c'c'/c/ | %89
w: |||
 .c'c'/c/ .c'2 | [Cc]c/C/ .cc/C/ | .cc/C/ c2 |"^People in Consternation." [cfa]>[cfa] [cfa][cfa] | %93
w: ||||
 [c=eg][c_e^f] [ceg]2 | [cfa]>[cfa] [cfa][cfa] | [c=eg][c_e^f] [ceg]2 | %96
w: |||
"^Second Alarm." [ee']e'/e/ e'e'/e/ | e'e'/e/ e'2 | ee/.E/ ee/.E/ | ee/.E/ e2 | %100
w: ||||
"^People in Panic." [=egbd']>[egbd'] [egbd'][egbd'] | [=egbc'][eg=b] [eg_bc']2 | %102
w: ||
 [=egbd']>[egbd'] [egbd'][egbd'] | [=egbc'][eg=b] [eg_bc']2 | %104
w: ||
"^People rush wildly through the streets."[Q:1/4=140] [gg'][_g_g'] [ff'][_f_f'] | %105
w: |
 [ee'][=d=d'] [_d_d'][cc'] | [Bb][Aa] [Gg][Ff] | [Ee][Gg] [Aa][Bb] || %108
w: |||
!fff!"^Fire fiercely Raging." [cec']3 [cec'] | [=B=d=b]2 [fa=bf']2 | [eac'e']3 [eac'] | %111
w: |||
 [eac'e']3 [cec'] | [Afa]3 [Afa] | [Bfb]2 [A_fa]2 | [cec'][Ee] [Ff][Gg] | [Aa][=A=a] [Bb][=B=b] | %116
w: |||||
 [cec']3 [cec'] | [=B=d=b]2 [fa=bf']2 | [eac'e']3 [eac'] | [eae']2 [cec']2 | [B=db]2 [Bdf]2 | %121
w: |||||
 [B=dg]2 [Bda]2 |"^Crash of falling\n                  walls." [B=db]2 [GB_dg]2 | [FBdf]2 [EBde]2 | %124
w: |||
!fff! [cec']3 [cec'] | [=B=d=b]2 [fa=bf']2 | [eac'e']3 [eac'] | [eae']2 [ceac']2 | [Adfa]3 [Adfa] | %129
w: |||||
 [Bfb]2 [Afa]2 | [c=ec'][=Ee] [Gg][Bb] | [c=ec'] z [Bec']2 | [Bfb]3 [Bfb] | [Ff][Gg] [Aa][ff'] | %134
w: |||||
 [eae']2 [ceac']2 | [Acea]3 [B=db] | [cec']2 [eac'e']2 | [B_db]2 [egbe']2 | [cea] z [egbd'e'] z | %139
w: |||||
!f! [Acea] z z2 ||[K:Eb]!ff![Q:1/4=130] [Bb]b/B/ .[Bb]b/B/ | .[Bb]b/B/ .b z | %142
w: |||
!8va(! [bb']b'/b/ .[bb']b'/b/ | .[bb']b'/b/ .b' z | [bb'][=a=a'] [_a_a'][gg'] | %145
w: |||
 [_g_g'][ff'] [=e=e'][_e_e']!8va)! | [dd'][_d_d'] [cc'][_c_c'] | [Bb] z!8va(! [bd'f'b'] z!8va)! |: %148
w: |||
!f! .[GB]/.[GB]/.[GB]/.[GB]/ [Gc][GB] | [Gc]3 B | c/.B/.G/.B/ d/.B/.G/.B/ | e!^![Ad] !^![Ad]2 | %152
w: ||||
 .[AB]/.[AB]/.[AB]/.[AB]/ !^![Ac][AB] | !^![Ac]3 [AB] | !^!d/.B/.A/.B/ !^!f/.B/.A/.B/ | %155
w: |||
 g[Ge] !^![GB]2 |!f! .[GB]/.[GB]/.[GB]/.[GB]/ [Gc][GB] | [Gc]3 B |1 c/.B/.G/.B/ d/.B/.G/.B/ | %159
w: ||||
 .e.[FBd] !^![FBd]2 | !^![=Aef]>[Aef] !^![Aeg]!^![Aef] | !^![Bdf]>[Bdf] !^![Bdg]!^![Bdf] | %162
w: |||
!<(! [Ff][^F^f] [Gg][=A=a]!<)! |!>(! [Bb].B/.B/ .B.B!>)! :|2 c/.B/.G/.B/ d/B/e/B/ || %165
w: |||
 .f[Ac] !^![Ac]2 | [^Fce]>d [^Fe][=Ff] | [Geg]>e [Gd][Gc] | [Bb][=B=b] [cc'][dd'] | %169
w: ||||
 [ee'] z [Bb][=A=a] |:!ff! [Bab]2 [=Ba=b]2 | [Aac']2 [Bad']2 | [cgc'][Bb] [=A=a][Bb] | %173
w: ||||
 [ee'][Bb] [=A=a][Bb] | [Ba_b]2 [=Ba=b]2 | [cac']2 [dad']2 | [cgc'][Bb] [=A=a][Bb] | %177
w: ||||
 [Gg].[Bb]/.[Bb]/ .[Bb].[Bb] | [Bab]2 [=Ba=b]2 | [Aac']2 [Bad']2 |1 [cgc'][Bb] [=A=a][Bb] | %181
w: ||||
 [ee'][Bb] [=A=a][Bb] | [dd']>[dd'] [dd'][ff'] | [cc']>[cc'] [cc'][ff'] | .[Bdb] z ([f=af']2 | %185
w: ||||
 [bg']).B/.B/ .B.B :|2!<(! [cgc'][Bb] [=A=a][Bb]!<)! || [faf']3 [eae'] | %188
w: |||
 [dad'][dad'] [^ca^c'][dad'] | [gbg']2 [faf']2 | %190
w: ||
!fff![Q:1/4=140] [egbe']>.[egbe'] .[egbe'].[egbe'] | [egbe'][egbe'] [egbe'][egbe'] | %192
w: ||
 [egbe']>.[egbe'] .[egbe'].[egbe'] | [egbe'][egbe'] [egbe'][egbe'] | %194
w: ||
 [eac'e']>[eac'e'] [eac'e'][eac'e'] | [eac'e'][eac'e'] [eac'e'][eac'e'] | %196
w: ||
 [ea_c'e']>[eac'e'] [eac'e'][eac'e'] | [ea_c'e'][eac'e'] [eac'e'][ff'] | %198
w: ||
 [gbg']>[gbg'] [gbg'][gbg'] | [faf']>[faf'] [faf'][faf'] | [ege']>[GBe] [GBe][GBe] | %201
w: |||
 [Beg]>[Beg] [Beg][Beg] | [Beb]>[Beb] [Beb][Beb] | [ege']>[ege'] [ege'][ege'] | %204
w: |||
 [eae']>[eae'] [eae'][eae'] | [eae'][eae'] [faf'][eae'] | [gbg']2!8va(! [g'b'g''] z!8va)! | %207
w: |||
 [G,B,E] z z2 |] %208
w: |
V:2
!ped! [B,,,B,,]2 [B,DF]2 | [B,EG]2 [B,FA] z!ped-up! |!ped! [B,,B,]2[K:treble] [Bdf]2 | %3
 [Beg]2 [Bfa] z!ped-up! |[K:bass]!ped! [B,B][=A,=A] [_A,_A][G,G] | [_G,_G][F,F] [=E,=E][_E,_E] | %6
 [D,D][_D,_D] [C,C][_C,_C]!ped-up! | [B,,B,] z [B,,,B,,] z |: E,[G,B,E] B,,[G,B,E] | %9
 E,[G,B,E] B,,[G,B,E] | E,[G,B,E] B,,[G,B,E] | F,[A,B,D] B,,[A,B,D] | F,[A,B,D] B,,[A,B,D] | %13
 F,[A,B,D] B,,[A,B,D] | F,[A,B,D] B,,[A,B,D] | E,[G,B,E] B,,[G,B,E] | E,[G,B,E] B,,[G,B,E] | %17
 E,[G,B,E] B,,[G,B,E] |1 E,[G,B,E] B,,[G,B,E] | F,[B,D] !^![B,D]2 | [C,,C,][=A,CE] F,[A,CE] | %21
 [B,,,B,,][F,B,D] F,[B,D] | [F,,F,][E,,E,] [D,,D,][C,,C,] | [B,,,B,,].B,/.B,/ .B,.B, :|2 %24
 E,[G,B,E] G,[B,E] || A,[CF] !^![CF]2 | [=A,,=A,][^F,CE] [F,CE] z | [B,,B,][G,B,E] [G,B,E][G,B,E] | %28
 [B,,B,][A,,A,] [G,,G,][F,,F,] | [E,,E,] z3 |:!ped! F,"^Grandioso."[A,B,D] B,,[A,B,D] | %31
 F,[A,B,D] B,,[A,B,D]!ped-up! | E,[G,B,E] B,,[G,B,E] | E,[G,B,E] B,,[G,B,E] | %34
!ped! F,[A,B,D] B,,[A,B,D] | F,[A,B,D] B,,[A,B,D]!ped-up! | E,[G,B,E] B,,[G,B,E] | %37
 [E,G,B,E].B,/.B,/ .B,.B, | F,[A,B,D] B,,[A,B,D] | F,[A,B,D] B,,[A,B,D] |1 E,[G,B,E] B,,[G,B,E] | %41
 E,[G,B,E] B,,[G,B,E] |!ped! [F,,F,][F,B,D] [F,B,D]2!ped-up! | %43
!ped! [F,,F,][=A,CE] F,[A,CE]!ped-up! | [B,D] z ([F,,F,]2 | [B,,,B,,]).B,/.B,/ .B,.B, :|2 %46
 E,[G,B,E] G,,[G,B,E] ||!ped! A,,[A,CF]/[A,CF]/ [A,CF][A,CF]!ped-up! | %48
!ped! B,,[A,B,D] [F,,F,][A,B,D]!ped-up! |!ped! [B,,,B,,][=B,,,=B,,] [C,,C,][D,,D,]!ped-up! | %50
 [E,,E,]2 [G,,G,]>[B,,B,] | [E,,E,] z z2 ||[K:Ab][M:2/4] [E,E][=D,=D] [_D,_D][C,C] | %53
 [B,,B,][A,,A,] [G,,G,][F,,F,] | [E,,E,] z (!fermata![E,,E,]2 | %55
 !fermata![F,,F,]2 !fermata![G,,G,]2) || A,,4 | A,,4 | A,,4 | A,,4 | D,4 | D,4 | A,,4 | A,G,F,E, | %64
 A,,4 | A,,4 | A,,4 | A,,4 | B,,4 | B,,4 | [B,,F,B,]2 [E,B,]2 | [E,A,]2 [E,G,]2 | A,,4 | A,,4 | %74
 A,,4 | A,,4 | D,4 | D,4 | C,4- | C,4 | D,4 | D,4 | D,4 | [_F,,_F,]2- [F,,F,] z | E,4 | E,4 | %86
 [A,C] z ([E,E]2 | .[A,,A,]) z z2 ||!ped! [C,,C,]2[K:treble] [CFA]2 | [C=EG]2 [CF]2 | %90
[K:bass] [C,,C,]2 [C,F,A,]2 | [C,=E,G,]2 [C,F,]2!ped-up! | %92
[K:treble]"^furioso." [CFA]>[CFA] [CFA][CFA] | [C=EG][C_E^F] [CEG]2 | [CFA]>[CFA] [CFA][CFA] | %95
 [C=EG][C_E^F] [CEG]2 |[K:bass]!ped! [E,,E,]2[K:treble] [EBd]2 | [EAc]2 [EGB]2 | %98
[K:bass] [E,,E,]2 [E,B,D]2 | [E,A,C]2 [E,G,B,]2!ped-up! |[K:treble] [=EGBd]>[EGBd] [EGBd][EGBd] | %101
 [=EGBc][EG=B] [EG_Bc]2 | [=EGBd]>[EGBd] [EGBd][EGBd] | [=EGBc][EG=B] [EG_Bc]2 | %104
[K:bass] [G,G][_G,_G] [F,F][_F,_F] | [E,E][=D,=D] [_D,_D][C,C] | [B,,B,][A,,A,] [G,,G,][F,,F,] | %107
 [E,,E,][D,,D,] [C,,C,][B,,,B,,] ||!ped! [A,,,A,,][E,A,C] [E,,E,][E,A,C]!ped-up! | %109
!ped! [A,,A,][F,A,=B,] =D,[F,A,B,]!ped-up! |!ped! [A,,A,][E,A,C] [E,,E,][E,A,C]!ped-up! | %111
 [A,,A,][E,A,C] E,[A,C] |!ped! D,[F,A,D] A,,[F,A,D] | D,[F,A,D] D,[F,A,D]!ped-up! | %114
 [A,,A,][E,,E,] [F,,F,][G,,G,] | [A,,A,][=A,,=A,] [B,,B,][=B,,=B,] | %116
!ped! [A,,,A,,][E,A,C] [E,,E,][E,A,C]!ped-up! |!ped! [A,,A,][F,A,=B,] =D,[F,A,B,]!ped-up! | %118
!ped! [A,,A,][E,A,C] [E,,E,][E,A,C] | [A,,A,][E,A,C] [A,,A,][E,A,C]!ped-up! | %120
!ped! [F,,F,][A,B,=D] B,,[A,B,D] | =D,[A,B,=D] B,,!ped-up![A,B,D] | %122
 [B,,B,]2!ped! [E,,E,]2!ped-up! |!ped! [F,,F,]2!ped! [G,,G,]2!ped-up! | %124
!ped! [A,,,A,,][E,A,C] [E,,E,][E,A,C]!ped-up! |!ped! [A,,A,][F,A,=B,] =D,[F,A,B,]!ped-up! | %126
 [A,,A,][E,A,C] [E,,E,][E,A,C] | [A,,A,][E,A,C] [A,,A,][E,A,C] | [D,,D,][F,A,D] [D,,D,][F,A,D] | %129
 [D,,D,][F,A,D] [D,,D,][F,A,D] | [C,C][=E,,=E,] [G,,G,][B,,B,] | [C,C] z [C,,C,]2 | %132
 [D,,D,][F,B,D] D,[F,B,D] | [D,,D,][F,B,D] =D,[F,A,=B,] | [E,,E,][E,A,C] [E,,E,][E,A,C] | %135
 [A,,A,][G,,G,] [F,,F,][_F,,_F,] | [E,,E,][E,A,C] E,[A,C] | E,,[E,G,C] E,,[E,G,C] | %138
 [A,,A,] z [E,,E,] z | [A,,,A,,] z z2 ||[K:Eb]!ped! [B,,,B,,]2 [B,DF]2!ped-up! | [B,EG]2 [B,FA] z | %142
!ped! [B,,B,]2[K:treble] [Bdf]2!ped-up! | [Beg]2 [Bfa] z | %144
[K:bass]!ped! [B,B][=A,=A] [_A,_A][G,G]!ped-up! | [_G,_G][F,F] [=E,=E][_E,_E] | %146
 [D,D][_D,_D] [C,C][_C,_C] | [B,,B,] z [B,,,B,,] z |: E,[G,B,E] B,,[G,B,E] | E,[G,B,E] B,,[G,B,E] | %150
 E,[G,B,E] B,,[G,B,E] | F,[A,B,D] B,,[A,B,D] | F,[A,B,D] B,,[A,B,D] | F,[A,B,D] B,,[A,B,D] | %154
 F,[A,B,D] B,,[A,B,D] | E,[G,B,E] B,,[G,B,E] | E,[G,B,E] B,,[G,B,E] | E,[G,B,E] B,,[G,B,E] |1 %158
 E,[G,B,E] B,,[G,B,E] | F,[B,D] !^![B,D]2 | [C,,C,][=A,CE] F,[A,CE] | [B,,,B,,][F,B,D] F,[B,D] | %162
 [F,,F,][E,,E,] [D,,D,][C,,C,] | [B,,,B,,].B,/.B,/ .B,.B, :|2 E,[G,B,E] G,[B,E] || %165
 A,[CF] !^![CF]2 | [=A,,=A,][^F,CE] [F,CE] z | [B,,B,][G,B,E] [G,B,E][G,B,E] | %168
 [B,,B,][A,,A,] [G,,G,][F,,F,] | [E,,E,] z3 |:!ped! F,"^Grandioso."[A,B,D] B,,[A,B,D]!ped-up! | %171
 F,[A,B,D] B,,[A,B,D] | E,[G,B,E] B,,[G,B,E] | E,[G,B,E] B,,[G,B,E] | %174
!ped! F,[A,B,D] B,,[A,B,D]!ped-up! | F,[A,B,D] B,,[A,B,D] | E,[G,B,E] B,,[G,B,E] | %177
 [E,G,B,E].B,/.B,/ .B,.B, | F,[A,B,D] B,,[A,B,D] | F,[A,B,D] B,,[A,B,D] |1 E,[G,B,E] B,,[G,B,E] | %181
 E,[G,B,E] B,,[G,B,E] |!ped! [F,,F,][F,B,D] [F,B,D]2!ped-up! | %183
!ped! [F,,F,][=A,CE] F,[A,CE]!ped-up! | [B,D] z ([F,,F,]2 | [B,,,B,,]).B,/.B,/ .B,.B, :|2 %186
 E,[G,B,E] G,,[G,B,E] ||!ped! A,,[A,CF]/[A,CF]/ [A,CF][A,CF]!ped-up! | %188
!ped! B,,[A,B,D] [F,,F,][A,B,D]!ped-up! |!ped! [B,,,B,,][=B,,,=B,,] [C,,C,][D,,D,]!ped-up! | %190
 [E,E]4- | [E,E][E,E] [F,F][E,E] | [_D,_D]4- | [D,D][_D,_D] [E,E][D,D] | [C,C]4- | %195
 [C,C][C,C] [_D,_D][C,C] | [_C,_C]4- | [C,C]3 [=C,=C] | [B,,B,][G,B,E] [G,B,E][G,B,E] | %199
 [B,,B,][F,A,B,D] [F,A,B,D][F,A,B,D] | [E,E]3 [E,E] | [B,,B,]3 [B,,B,] | [G,,G,]3 [G,,G,] | %203
 [E,,E,]3 [E,,E,] | [_C,,_C,]4- | [C,,C,]2 [B,,,B,,]2 | [E,,E,]2 [E,,,E,,] z | [E,,E,] z z2 |] %208
V:3
 x4 | x4 | x2[K:treble] x2 | x4 |[K:bass] x4 | x4 | x4 | x4 |: x4 | x4 | x4 | x4 | x4 | x4 | x4 | %15
 x4 | x4 | x4 |1 x4 | x4 | x4 | x4 | x4 | x4 :|2 x4 || x4 | x4 | x4 | x4 | x4 |: x4 | x4 | x4 | %33
 x4 | x4 | x4 | x4 | x4 | x4 | x4 |1 x4 | x4 | x4 | x4 | x4 | x4 :|2 x4 || x4 | x4 | x4 | x4 | %51
 x4 ||[K:Ab][M:2/4] x4 | x4 | x4 | x4 ||xE,A,E, |xF,A,F, |xE,A,E, |xE,A,E, |xA,DA, |xA,DA, | %62
xE,F,G, | x4 |xE,A,E, |xF,A,F, |xE,A,E, |xE,A,E, |xF,B,F, |xF,B,F, | x4 | x4 |xE,A,E, |xF,A,F, | %74
xE,A,E, |xE,A,E, |xA,DA, |xA,DA, | G,2 A,2 | G,3 x |xF,B,F, |xA,CA, |xA,CA, | x4 |xA,CA, |xG,DG, | %86
 x4 | x4 || x2[K:treble] x2 | x4 |[K:bass] x4 | x4 |[K:treble] x4 | x4 | x4 | x4 | %96
[K:bass] x2[K:treble] x2 | x4 |[K:bass] x4 | x4 |[K:treble] x4 | x4 | x4 | x4 |[K:bass] x4 | x4 | %106
 x4 | x4 || x4 | x4 | x4 | x4 | x4 | x4 | x4 | x4 | x4 | x4 | x4 | x4 | x4 | x4 | x4 | x4 | x4 | %125
 x4 | x4 | x4 | x4 | x4 | x4 | x4 | x4 | x4 | x4 | x4 | x4 | x4 | x4 | x4 ||[K:Eb] x4 | x4 | %142
 x2[K:treble] x2 | x4 |[K:bass] x4 | x4 | x4 | x4 |: x4 | x4 | x4 | x4 | x4 | x4 | x4 | x4 | x4 | %157
 x4 |1 x4 | x4 | x4 | x4 | x4 | x4 :|2 x4 || x4 | x4 | x4 | x4 | x4 |: x4 | x4 | x4 | x4 | x4 | %175
 x4 | x4 | x4 | x4 | x4 |1 x4 | x4 | x4 | x4 | x4 | x4 :|2 x4 || x4 | x4 | x4 | x4 | x4 | x4 | x4 | %194
 x4 | x4 | x4 | x4 | x4 | x4 | x4 | x4 | x4 | x4 | x4 | x4 | x4 | x4 |] %208
V:4
 x4 | x4 |!8va(! x4 | x4 | x4 | x4!8va)! | x4 | x2!8va(! x2!8va)! |: x4 | x4 | x4 | x4 | x4 | x4 | %14
 x4 | x4 | x4 | x4 |1 x4 | x4 | x4 | x4 | x4 | x4 :|2 x4 || x4 | x4 | x4 | x4 | x4 |: x4 | x4 | %32
 x4 | x4 | x4 | x4 | x4 | x4 | x4 | x4 |1 x4 | x4 | x4 | x4 | x4 | x4 :|2 x4 || x4 | x4 | x4 | x4 | %51
!8va(! x4!8va)! ||[K:Ab][M:2/4] x4 | x4 | x4 | x4 || x4 | x4 | x4 | x4 | x4 | x4 | x4 | x4 | x4 | %65
 x4 | x4 | x4 | x4 | x4 | x4 | x4 | x4 | x4 | x4 | x4 | x4 | x4 | =E2 F2 | =E3 z | x4 | x4 | x4 | %83
 x4 | x4 | x4 | x4 | x4 || x4 | x4 | x4 | x4 | x4 | x4 | x4 | x4 | x4 | x4 | x4 | x4 | x4 | x4 | %102
 x4 | x4 | x4 | x4 | x4 | x4 || x4 | x4 | x4 | x4 | x4 | x4 | x4 | x4 | x4 | x4 | x4 | x4 | x4 | %121
 x4 | x4 | x4 | x4 | x4 | x4 | x4 | x4 | x4 | x4 | x4 | x4 | x4 | x4 | x4 | x4 | x4 | x4 | x4 || %140
[K:Eb] x4 | x4 |!8va(! x4 | x4 | x4 | x4!8va)! | x4 | x2!8va(! x2!8va)! |: x4 | x4 | x4 | x4 | x4 | %153
 x4 | x4 | x4 | x4 | x4 |1 x4 | x4 | x4 | x4 | x4 | x4 :|2 x4 || x4 | x4 | x4 | x4 | x4 |: x4 | %171
 x4 | x4 | x4 | x4 | x4 | x4 | x4 | x4 | x4 |1 x4 | x4 | x4 | x4 | x4 | x4 :|2 x4 || x4 | x4 | x4 | %190
 x4 | x4 | x4 | x4 | x4 | x4 | x4 | x4 | x4 | x4 | x4 | x4 | x4 | x4 | x4 | x4 | %206
 x2!8va(! x2!8va)! | x4 |] %208

